src/dsmComponents/Icons/add-16px.svg

<svg width="16" height="16" xmlns="http://www.w3.org/2000/svg" xmlns:xlink="http://www.w3.org/1999/xlink"><defs><path d="M15 7H9V1c0-.6-.4-1-1-1S7 .4 7 1v6H1c-.6 0-1 .4-1 1s.4 1 1 1h6v6c0 .6.4 1 1 1s1-.4 1-1V9h6c.6 0 1-.4 1-1s-.4-1-1-1z" id="add-16px_svg__a"/></defs><use fill="#737373" xlink:href="#add-16px_svg__a" fill-rule="evenodd"/></svg>

<?xml version="1.0" encoding="UTF-8"?>
<svg width="16px" height="16px" viewBox="0 0 16 16" version="1.1" xmlns="http://www.w3.org/2000/svg" xmlns:xlink="http://www.w3.org/1999/xlink">
    <!-- Generator: Sketch 59.1 (86144) - https://sketch.com -->
    <title>add-16px</title>
    <desc>Created with Sketch.</desc>
    <defs>
        <path d="M15,7 L9,7 L9,1 C9,0.4 8.6,0 8,0 C7.4,0 7,0.4 7,1 L7,7 L1,7 C0.4,7 0,7.4 0,8 C0,8.6 0.4,9 1,9 L7,9 L7,15 C7,15.6 7.4,16 8,16 C8.6,16 9,15.6 9,15 L9,9 L15,9 C15.6,9 16,8.6 16,8 C16,7.4 15.6,7 15,7 Z" id="path-1"></path>
    </defs>
    <g id="Final" stroke="none" stroke-width="1" fill="none" fill-rule="evenodd">
        <g id="All-Nucleo-Icons" transform="translate(-319.000000, -156.000000)">
            <g id="Solo/Nucleo/16px/add" transform="translate(315.000000, 152.000000)">
                <g id="e-add" transform="translate(4.000000, 4.000000)">
                    <g id="Colour/Default-Colour">
                        <mask id="mask-2" fill="white">
                            <use xlink:href="#path-1"></use>
                        </mask>
                        <g id="Mask" fill-rule="nonzero"></g>
                        <g id="colour/neutral/chia" mask="url(#mask-2)" fill="#737373">
                            <g transform="translate(-24.000000, -24.000000)" id="Colour">
                                <rect x="0" y="0" width="64" height="64"></rect>
                            </g>
                        </g>
                    </g>
                </g>
            </g>
        </g>
    </g>
</svg>
